!!!COM: Mozart, Wolfgang Amadeus
!!!OTL: String Quartet No. 17 in B-flat Major ("Hunt")
!!!OMD: Menuetto
!!!OMV: 2
!!!SCT1: K<sup>1</sup> 458
!!!SCA: Chronologisch-thematisches Verzeichnis sämtlicher Tonwerke Wolfgang Amade Mozarts (L. von Köchel; 1862, 2/1905, 3/1937, 1947)
!!!SCT2: K<sup>6</sup> 458
!!!YOR: Breitkopf & Härtel Edition
!!!ENC: Frances Bennion
!!!CDT: 1756/1/27/-1791/12/5/
!!!OCY: Österreich
!!!YEC: Copyright (c) 1994, 2000 Center for Computer Assisted Research in the Humanities
!!!YEM: Rights to all derivative editions reserved.
!!!YEM: Refer to licensing agreement for further details.
!!!YEN: United States of America
**kern	**kern	**kern	**kern
*k[b-e-]	*k[b-e-]	*k[b-e-]	*k[b-e-]
*B-:	*B-:	*B-:	*B-:
*clefC	*clefF	*clefG	*clefG
*M3/4	*M3/4	*M3/4	*M3/4
4r	[2.f	2d	2b-
4BB-	.	.	.
4C	.	4e-	4a
=2	=2	=2	=2
4D	4f]	4f	4b-
4C	4A	4e-	8.cc
.	.	.	32b-
.	.	.	32cc
4BB-	4B-	4d	8.dd
.	.	.	16b-
=3	=3	=3	=3
4AA	4c	2c	2f
4FF	4A	.	.
4A	4c	8.ee-	8.gg
.	.	16dd	16ff
=4	=4	=4	=4
4B-	4d	2dd	2ff
4d	4f	.	.
4F#	4A	8.cc	8.ee-
.	.	16b-	16dd
=5	=5	=5	=5
4G	4B-	2b-	2dd
4B-	4d	.	.
4D	4F	4a-	8.cc
.	.	.	16b-
=6	=6	=6	=6
4E-	4G	4g	4.b-
4C	4e-	4b-	.
.	.	.	16cc
.	.	.	16dd
4F	4c	4a	8ee-
.	.	.	16dd
.	.	.	16cc
=7	=7	=7	=7
4D	[2f	2b-	4..b-
4F	.	.	.
.	.	.	16dd
4F	8.f]	8.cc	8.ee-
.	16e-	16a	16cc
=8	=8	=8	=8
4B-	4d	4b-	4b-
4F	2r	2r	2r
4BB-	.	.	.
=9	=9	=9	=9
4r	[2.d	2b-	2ddd
4G	.	.	.
4A	.	4cc	4ff#
=10	=10	=10	=10
4B-	4d]	4dd	4gg
4A	4f#	4cc	8.aa
.	.	.	32gg
.	.	.	32aa
4G	4g	4b-	8.bb-
.	.	.	16gg
=11	=11	=11	=11
4r	4r	4r	8ddd
.	.	.	8ccc
4E	[2c	8g	8bb-
.	.	8f	8aa
4B-	.	8e	8gg
.	.	8g	8ee
=12	=12	=12	=12
4A	4c]	2.cc	8gg
.	.	.	8ff
4G	8f	.	8aa
.	8e	.	8gg
4F	8g	.	8bb-
.	8f	.	8aa
=13	=13	=13	=13
4r	[2.g	[2.b-	8bb-
.	.	.	8dd
4G	.	.	8bb-
.	.	.	8dd
4F	.	.	8bb-
.	.	.	8dd-
=14	=14	=14	=14
2E	8g]	8b-]	8cc
.	8e	8g	8bb-
.	8g	8b-	8cc
.	8e	8g	8bb-
4F	4c	8a	8cc
.	.	8f	8aa
=15	=15	=15	=15
4B-	4b-	4dd	8b-
.	.	.	8gg
4c	4a	4cc	8a
.	.	.	8ff
4C	4g	4b-	8g
.	.	.	8ee
=16	=16	=16	=16
4F	4f	4a	[2.ff
4FF	4r	4r	.
4r	8.b	8.dd	.
.	16cc	16ee-	.
=17	=17	=17	=17
4r	2cc	2ee-	2.ff_
4A	.	.	.
4B-	4b-	8.dd	.
.	.	16dd-	.
=18	=18	=18	=18
4F	2a	2cc	2.ff_
4FF	.	.	.
4r	8.d	8.f	.
.	16c#	16e	.
=19	=19	=19	=19
4r	2c	2e-	2.ff_
4AA	.	.	.
4BB-	4B-	8.d	.
.	.	16d-	.
=20	=20	=20	=20
4FF	4A	4c	4.ff]
4F	2r	2r	.
.	.	.	8ee
4r	.	.	8ee-
.	.	.	8cc
=21	=21	=21	=21
4r	[2.F	2d	2b-
4BB-	.	.	.
4C	.	4e-	4a
=22	=22	=22	=22
4D	4F]	4f	4b-
4C	4A	4e-	8.cc
.	.	.	32b-
.	.	.	32cc
4BB-	4B-	4d	8.dd
.	.	.	16b-
=23	=23	=23	=23
4AA	4c	2c	2f
4FF	4A	.	.
4A	4c	8.ee-	8.gg
.	.	16dd	16ff
=24	=24	=24	=24
4B-	4d	2dd	2ff
4d	4f	.	.
4F#	4A	8.cc	8.ee-
.	.	16b-	16dd
=25	=25	=25	=25
4G	4B-	2b-	2dd
4B-	4d	.	.
4D	4f	4a-	8.cc
.	.	.	16b-
=26	=26	=26	=26
4E-	4B-	4g	4.b-
4F	4d	4f	.
.	.	.	16cc
.	.	.	16dd
4F#	4c	4A	8ee-
.	.	.	16dd
.	.	.	16cc
=27	=27	=27	=27
4G	4e	4d-	4..b-
4F	4..f	8.d	.
.	.	16B-	16dd
4FF	.	8.c	8.ee-
.	16e-	16A	16cc
=28	=28	=28	=28
4BB-	4d	4B-	4b-
4F	2r	2r	2r
4B-	.	.	.
=29	=29	=29	=29
4BB-	8B-	8d	4ff
.	8F	8B-	.
2r	8B-	8d	8.dd
.	8F	8B-	.
.	.	.	16ee-
.	8B-	8d	4ff
.	8F	8B-	.
=30	=30	=30	=30
4BB-	8d	8f	4ff
.	8F	8d	.
2r	8c	8e-	8.gg
.	8F	8c	.
.	.	.	16aa
.	8B-	8d	4bb-
.	8F	8B-	.
=31	=31	=31	=31
2E-	8B-	8c	4cc
.	8G	8B-	.
.	8B-	8c	4cc
.	8G	8B-	.
4E	8B-	8c	4cc
.	8G	8B-	.
=32	=32	=32	=32
4F	8B-	8c	4.cc
.	8F	8B-	.
4FF	8A	8c	.
.	8F	8A	16dd
.	.	.	16ee-
4BB-	8B-	8d	4dd
.	8F	8B-	.
=33	=33	=33	=33
2B-	8f	8dd	4ff
.	8d	8f	.
.	8f	8dd	8.dd
.	8B-	8f	.
.	.	.	16ee
4A	8d	8cc	4ff#
.	8c	8d	.
=34	=34	=34	=34
4G	8d	8b-	4gg
.	8B-	8d	.
4F	8d	8b-	8.gg
.	8B-	8d	.
.	.	.	16aa
4E	8c	8g	4bb-
.	8G	8c	.
=35	=35	=35	=35
4F	8A	8f	4cc
.	8F	8A	.
2r	8f	8a	4ccc
.	8A	8f	.
.	8f	8a	4ccc
.	8A	8f	.
=36	=36	=36	=36
4CC	8B-	8g	4.ccc
.	8G	8e	.
4C	8B-	8g	.
.	8G	8e	16ddd
.	.	.	16bb-
4D	8F	8f	4aa
.	8f	8a	.
=37	=37	=37	=37
4BB-	8d	8dd	4gg
.	8g	8b-	.
4GG	8B-	8dd	4..bb-
.	8g	8b-	.
4C	8e	8g	.
.	8B-	8e	.
.	.	.	16gg
=38a	=38a	=38a	=38a
4FF	8A	8f	4ff
.	8e-	8g	.
4r	8d	8f	2r
.	8c	8e-	.
4r	8B-	8d	.
.	8A	8c	.
=38b	=38b	=38b	=38b
4FF	8A	8f	4ff
.	8d	8f	.
4r	8f	8a-	4r
.	8e-	8g	.
4r	8d	8f	4r
.	8c	8e-	.
=39	=39	=39	=39
2GG	8B	8d	4.ff
.	8G	8B	.
.	8B	8d	.
.	8c	8e-	8ee-
4r	8d	8f	8dd
.	8c	8e-	8r
=40	=40	=40	=40
2GG	8B	8d	4.ff
.	8G	8B	.
.	8B	8d	.
.	8c	8e-	8ee-
4r	8d	8f	8dd
.	8B	8d	8r
=41	=41	=41	=41
4G-	2c	4b-	4.ee-
4F	.	4a	.
.	.	.	24dd-
.	.	.	24cc
.	.	.	24b-
4r	4r	4r	8a
.	.	.	8r
=42	=42	=42	=42
4G-	4b-	2c	4.ee-
4F	4a	.	.
.	.	.	24dd-
.	.	.	24cc
.	.	.	24b-
4r	4r	4r	8a
.	.	.	8r
=43	=43	=43	=43
2.r	2.r	2.r	4b-
.	.	.	4dd-
.	.	.	4b-
=44	=44	=44	=44
2.r	4F	4f	4f
.	4A	4a	2r
.	4F	4f	.
=45	=45	=45	=45
2.C	2.G	2.B-	4ee
.	.	.	4ccc
.	.	.	4ee
=46	=46	=46	=46
4E-	4A	4c	[2.ff
4D	4B	4d	.
4AA	4c	4e-	.
=47	=47	=47	=47
4BB-	8B-	8d	4ff]
.	8F	8B-	.
2r	8B-	8d	8.dd
.	8F	8B-	.
.	.	.	16ee-
.	8B-	8d	4ff
.	8F	8B-	.
=48	=48	=48	=48
4BB-	8d	8f	4ff
.	8F	8d	.
2r	8c	8e-	8.gg
.	8F	8c	.
.	.	.	16aa
.	8B-	8d	4bb-
.	8F	8B-	.
=49	=49	=49	=49
2A-	8d	8f	4b-
.	8B-	8d	.
.	8d	8f	4b-
.	8B-	8d	.
4G	8e-	8g	4b-
.	8B-	8e-	.
=50	=50	=50	=50
4D	8f	8a-	4.ff 4.b-
.	8B-	8f	.
4BB-	8d	8f	.
.	8B-	8d	16gg
.	.	.	16aa-
4E-	8e-	8g	4gg
.	8B-	8e-	.
=51	=51	=51	=51
4r	4r	4r	4gg
4B	4d	[4g	8ff#
.	.	.	8ff
8c	8c	8g]	8ee
8r	8r	8r	8r
=52	=52	=52	=52
4r	4r	4r	4ff
4A	4c	[4f	8ee
.	.	.	8ee-
8B-	8d	8f]	8dd
8r	8r	8r	8r
=53	=53	=53	=53
2.r	2.r	2.r	4f
.	.	.	4eee-
.	.	.	4eee-
=54	=54	=54	=54
4FF	8c	8a	[3..eee-
.	8A	8f	.
4e-	8c	8a	.
.	8A	8f	.
4e-	8c	8a	.
.	.	.	24eee-]
.	8A	8f	24ddd
.	.	.	24ccc
.	.	.	24bb-
=55	=55	=55	=55
4e-	2f	4cc	4aa
4d	.	4b-	4bb-
4r	4e-	4b-	4gg
=56	=56	=56	=56
4F	8d	2f	2b-
.	8f	.	.
4F	8d	.	.
.	8f	.	.
4F	8e-	4a	8dd
.	8f	.	8cc
=57	=57	=57	=57
4BB-	8d	8b-	4b-
.	8d	8f	.
4D	8b-	8ff	2r
.	8f	8dd	.
4G	8d	8b-	.
.	8f	8dd	.
=58	=58	=58	=58
4E-	8e-	8g	4cc
.	8c	8e-	.
4C	8g	8cc	4..ee-
.	8e-	8b-	.
4F	8c	8a	.
.	8A	8c	.
.	.	.	16cc
=59	=59	=59	=59
4D	8B-	8d	4ff
.	8d	8b-	.
4BB-	8f	8dd	2r
.	8d	8b-	.
4G	8B-	8d	.
.	8d	8b-	.
=60	=60	=60	=60
4E-	8G	8g	4cc
.	8c	8e-	.
4C	8E-	8g	4..ee-
.	8c	8e-	.
4F	8A	8c	.
.	8E-	8A	.
.	.	.	16cc
=61a	=61a	=61a	=61a
4BB-	8D	8B-	4b-
.	8d	8f	.
4r	8f	8a-	4r
.	8e-	8g	.
4r	8d	8f	4r
.	8c	8e-	.
=61b	=61b	=61b	=61b
4BB-	4D	4B-	4b-
4r	4r	4r	4r
4r	4r	4r	4r
==	==	==	==
*-	*-	*-	*-
!!!RWG1: This file contains only pitch and duration data.
!!!RWG2: Transposing instruments are not transposed.
!!!RWG3: Spines may have incompatible meters.
!!!RWG4: Durations of rests and tied notes may be interpreted.
!!!RWG: Key is interpreted using the Humdrum key tool.
!!!OPT: Hunt
!!!AFT: stage1
!!!END: 1997/04/15
!!!KEY: 2169397555
!!!EMD: Converted from MuseData to Humdrum Dec 16, 2000, by Andreas Kornstaedt using muse2kern.
!!!EMD: Manual editing by Craig Sapp, Nov 2001
